X: 43419
T: Y Derwydd
R: jig
M: 6/8
K: Dmajor
|:A|FGA A2 A|BGB A2 d|Bcd efg|fed cc/B/A|
F2 A AF/G/A|BGB AFD|Bcd e>fg|1 ABc d2:|2 A>Bc d||
|:e/f/g|af/g/a a2 f|ge/f/g g2 e|f/g/ag fed|c>ed cBA|
aff afa|gee geg|fed c>de|1 dAf d:|2 d>A[Ff] [D2d2]||

